X:1
T: The Jolly Tinker
P:Roche version
R:Reel
Q: 232
K:G
M:4/4
L:1/8
G2 AG FG Ac|B2 dB ec AF|G2 AG FG Ac|BG AF GF ED|
G2 AG FG Ac|B2 dB ec AF|G2 AG FG Ac|Bc AF G2 G2|
Bd d2 ed d2|eg fa ge dc|Bd d2 ed d2|AB cA GF ED|
Bd d2 ed d2|eg fa g2 ga|((3bag) af gf ed|eg fa ge dc|
Bd d2 ed d2|eg fa ge dc|Bd d2 ed d2|AB cA GF ED|
Bd d2 ed d2|eg fa g2 ga|((3bag) af gf ed|eg fa ge dB|
G2 AG FG Ac|B2 dB ec AF|G2 AG FG Ac|BG AF GF ED|
G2 AG FG Ac|B2 dB ec AF|G2 AG FG Ac|Bc AF G2 G2||
